img/catalog/catalog-unknown.svg

<svg width="750" height="470" fill="none" xmlns="http://www.w3.org/2000/svg"><path fill="#ECECEC" d="M0 0h750v470H0z"/><path d="M302.641 366h-3.223l-4.289-7.008-4.324 7.008h-3l5.683-8.883-5.32-8.25h3.117l3.961 6.481 3.961-6.481h3.023l-5.355 8.297 5.766 8.836Zm7.242-5.332v-2.227h22.078v2.227h-22.078ZM354.039 366h-3.223l-4.289-7.008-4.324 7.008h-3l5.684-8.883-5.321-8.25h3.118l3.961 6.481 3.96-6.481h3.024l-5.356 8.297 5.766 8.836Zm.047-12.961h3l2.637 7.348c.398 1.047.664 2.031.797 2.953h.093c.071-.43.199-.949.387-1.559.188-.617 1.18-3.531 2.977-8.742h2.976l-5.543 14.684c-1.008 2.695-2.687 4.043-5.039 4.043a7.92 7.92 0 0 1-1.781-.2v-2.179c.414.093.887.14 1.418.14 1.328 0 2.262-.769 2.801-2.308l.48-1.219-5.203-12.961Zm27.269 17.543h-2.566V366h-8.883v4.582h-2.543v-6.715h1.055c.922-1.32 1.652-2.914 2.191-4.781.547-1.875.871-3.891.973-6.047h7.875v10.828h1.898v6.715Zm-4.605-6.715v-8.719h-2.789a23.74 23.74 0 0 1-.938 4.758c-.468 1.563-1.043 2.883-1.722 3.961h5.449Zm18.504-4.371c0 2.117-.543 3.77-1.629 4.957-1.086 1.188-2.598 1.781-4.535 1.781-1.211 0-2.281-.273-3.211-.82-.93-.547-1.645-1.332-2.145-2.355-.5-1.024-.75-2.211-.75-3.563 0-2.101.539-3.742 1.618-4.922 1.078-1.179 2.597-1.769 4.558-1.769 1.875 0 3.36.605 4.453 1.816 1.094 1.203 1.641 2.828 1.641 4.875Zm-9.434 0c0 2.992 1.106 4.488 3.317 4.488 2.187 0 3.281-1.496 3.281-4.488 0-2.961-1.102-4.441-3.305-4.441-1.156 0-1.996.383-2.519 1.148-.516.766-.774 1.863-.774 3.293Zm18.996-.164v-6.293h2.567v6.293l4.992-6.293h2.906l-5.097 6.27 5.554 6.691h-3.035l-5.32-6.574V366h-2.567v-6.574L399.508 366h-3.024l5.543-6.691-5.086-6.27h2.907l4.968 6.293Zm15.68-6.293v5.203h6.106v-5.203h2.753V366h-2.753v-5.59h-6.106V366h-2.754v-12.961h2.754Zm15.445 0v6.645c0 .773-.062 1.91-.187 3.41l6.504-10.055h3.363V366h-2.648v-6.527c0-.36.019-.942.058-1.746.047-.805.086-1.391.117-1.758L436.668 366h-3.363v-12.961h2.636Zm21.645 0h3.023l-5.355 6.246 5.812 6.715h-3.164l-5.601-6.574V366h-2.754v-12.961h2.754v6.293l5.285-6.293Z" fill="#666"/><path d="M296.735 150.804c6.073 0 11.014-4.941 11.014-11.013s-4.941-11.013-11.014-11.013c-6.072 0-11.013 4.941-11.013 11.013s4.941 11.013 11.013 11.013Zm0-15.733a4.724 4.724 0 0 1 4.72 4.72 4.724 4.724 0 0 1-4.72 4.72 4.724 4.724 0 0 1-4.719-4.72 4.725 4.725 0 0 1 4.719-4.72ZM439.909 193.284c0 6.073 4.941 11.014 11.013 11.014s11.013-4.941 11.013-11.014c0-6.072-4.941-11.013-11.013-11.013s-11.013 4.941-11.013 11.013Zm11.013-4.72a4.725 4.725 0 0 1 4.72 4.72 4.725 4.725 0 0 1-4.72 4.72 4.725 4.725 0 0 1-4.72-4.72 4.725 4.725 0 0 1 4.72-4.72ZM463.509 159.087a3.563 3.563 0 1 0-.001-7.125 3.563 3.563 0 0 0 .001 7.125ZM312.469 171.674a3.563 3.563 0 1 0-.001-7.125 3.563 3.563 0 0 0 .001 7.125ZM428.757 144.649c.614.615 1.42.922 2.225.922.804 0 1.61-.307 2.224-.922l3.556-3.555 3.556 3.555c.614.615 1.42.922 2.225.922a3.145 3.145 0 0 0 2.224-5.371l-3.555-3.556 3.555-3.555a3.146 3.146 0 0 0-4.449-4.45l-3.556 3.556-3.556-3.556a3.146 3.146 0 0 0-4.449 4.45l3.556 3.555-3.556 3.556a3.145 3.145 0 0 0 0 4.449ZM284.01 210.729c.614.615 1.42.922 2.225.922.804 0 1.61-.307 2.224-.922l3.556-3.555 3.556 3.555c.614.615 1.42.922 2.225.922a3.145 3.145 0 0 0 2.224-5.371l-3.556-3.556 3.556-3.555a3.146 3.146 0 0 0-4.449-4.45l-3.556 3.556-3.556-3.556a3.146 3.146 0 0 0-4.449 4.45l3.556 3.555-3.556 3.556a3.145 3.145 0 0 0 0 4.449ZM391.135 212.164a3.147 3.147 0 1 0 0-6.294 3.147 3.147 0 0 0 0 6.294ZM359.669 212.164a3.147 3.147 0 1 0-.001-6.293 3.147 3.147 0 0 0 .001 6.293Z" fill="#999"/><path d="M462.249 259.994c-3.991-2.996-4.326-7.836-4.713-13.437-.606-8.734-1.359-19.599-18.81-21.782-8.893-1.103-17.709 1.746-24.838 8.036-5.925 5.233-10.109 12.371-12.059 20.09l-12.266-5.573v-2.539c0-.029-.016-.054-.017-.083 12.043-5.754 21.199-16.476 24.914-29.401 2.093.055 4.019-.508 5.921-1.693 2.92-1.822 4.896-4.785 5.283-7.931a11.063 11.063 0 0 0-2.673-8.678 11.044 11.044 0 0 0-5.344-3.328c-.006-.553-.028-2.563-.036-2.773.158-.377.273-14.025.273-14.025.728-.087 1.438-.219 2.108-.451 2.36-.814 4.161-2.486 5.347-4.965h.003c4.094-8.555-3.221-20.673-17.119-30.003.974-2.465 1.076-5.154.188-7.675a10.954 10.954 0 0 0-5.63-6.272 10.928 10.928 0 0 0-8.419-.458c-2.524.892-4.556 2.655-5.865 4.957-15.98-4.98-30.008-3.084-34.108 5.47-.922 1.927-1.121 3.941-.674 5.891-13.467 6.157-20.846 17.798-20.79 32.991l.04 5.195c.031 2.941.109 8.45.167 8.696-.001.046.032 2.647.032 3.415a10.939 10.939 0 0 0-5.018 2.981 10.945 10.945 0 0 0-3.079 8.048c.117 3.367 2.028 6.619 5.107 8.696 1.946 1.312 3.897 1.954 6.017 1.92 3.291 12.025 11.273 22.115 21.922 28.242-.001.026-.015.048-.015.075v3.697l-25.078 11.397c-11.527 5.239-18.976 16.947-18.976 29.823v25.882a3.145 3.145 0 0 0 3.147 3.147h113.28a3.145 3.145 0 0 0 3.147-3.147v-14.488c1.55.195 3.118.328 4.72.328 13.899 0 28.636-8.994 32.185-19.639 1.436-4.312 2.272-12.726-8.274-20.636Zm-65.797-127.003a4.709 4.709 0 0 1 3.604.194c1.893.908 2.883 2.917 2.618 4.889a80.522 80.522 0 0 0-3.976-2.054 78.42 78.42 0 0 0-4.056-1.795c.509-.535 1.095-.983 1.81-1.234Zm-36.39 7.206c1.417-2.953 5.839-4.671 12.04-4.671 6.481 0 14.907 1.874 23.879 6.17 17.559 8.414 26.572 21.007 23.681 27.048-.578 1.208-1.227 1.561-1.727 1.736-3.663 1.254-12.35-3.045-21.569-7.592-2.265-1.119-4.64-2.293-7.123-3.482-2.437-1.168-4.852-2.289-7.194-3.377-10.163-4.724-20.666-9.61-22.156-13.761-.245-.686-.197-1.306.169-2.071Zm-3.149 8.623c4.414 4.507 12.653 8.346 22.481 12.915a629.538 629.538 0 0 1 7.132 3.35c2.458 1.177 4.812 2.338 7.055 3.444 7.142 3.528 13.073 6.449 18.008 7.738v11.898c-9.416 7.08-20.063 9.763-30.127 7.563-9.023-1.97-16.504-7.688-20.524-15.687a3.144 3.144 0 0 0-2.333-1.696 3.113 3.113 0 0 0-2.735.915c-4.059 4.179-9.987 6.69-16.578 7.102-.003-1.519-.022-3.171-.037-4.865l-.04-5.16c-.059-16.216 9.403-23.894 17.698-27.517Zm-15.267 62.269a3.155 3.155 0 0 0-1.512-2.096 3.186 3.186 0 0 0-2.575-.255c-1.216.415-2.341.471-3.865-.562-1.395-.94-2.293-2.36-2.342-3.703a4.694 4.694 0 0 1 1.321-3.454 4.685 4.685 0 0 1 3.396-1.441 3.25 3.25 0 0 0 2.292-.971c.874-.898 1.144-1.669 1.09-5.964 6.731-.377 12.976-2.573 17.87-6.291 5.147 7.87 13.263 13.444 22.798 15.524 2.753.603 5.534.901 8.321.901 7.827-.002 15.675-2.385 22.981-6.922.12 1.438.407 2.127 1.043 2.77.59.599 1.429.953 2.271.953 1.353 0 2.643.58 3.537 1.594.91 1.027 1.316 2.354 1.146 3.74-.159 1.278-1.044 2.532-2.366 3.359-1.328.827-2.452.953-3.875.452a3.12 3.12 0 0 0-2.578.214 3.158 3.158 0 0 0-1.546 2.081c-3.064 14.068-13.462 25.561-27.14 29.992l-1.389.455c-3.912 1.268-7.91 1.315-11.554.138-13.913-4.477-24.383-16.17-27.324-30.514Zm25.395 36.506a23.983 23.983 0 0 0 7.381 1.149c2.671 0 5.378-.43 8.045-1.294l.803-.262v1.163c0 5.205-4.235 9.44-9.44 9.44-5.206 0-9.44-4.235-9.44-9.44v-1.799c.884.346 1.739.75 2.651 1.043Zm60.281 63.689h-18.88v-15.733a3.145 3.145 0 0 0-3.147-3.147 3.145 3.145 0 0 0-3.146 3.147v15.733h-59.787v-15.733a3.145 3.145 0 0 0-3.147-3.147 3.145 3.145 0 0 0-3.146 3.147v15.733h-15.734v-22.736c0-10.414 6.002-19.873 15.288-24.095l23.495-10.677c2.221 5.998 7.95 10.308 14.711 10.308s12.49-4.31 14.71-10.309l12.211 5.548c-.088 1.061-.175 2.122-.175 3.188 0 16.991 11.283 31.386 26.747 36.112v12.661Zm37.228-32.643c-2.676 8.026-15.171 15.337-26.215 15.337-17.35 0-31.466-14.117-31.466-31.467 0-9.461 4.182-18.8 11.185-24.98 4.954-4.373 10.875-6.696 16.935-6.696.983 0 1.97.061 2.956.184 12.313 1.54 12.732 7.593 13.312 15.97.431 6.242.919 13.315 7.219 18.039 5.632 4.225 7.676 8.807 6.074 13.613Z" fill="#999"/><path d="M450.922 265.787c-5.135 0-9.311 4.176-9.311 9.311 0 5.131 4.176 9.307 9.311 9.307 5.134 0 9.311-4.176 9.311-9.307 0-5.135-4.176-9.311-9.311-9.311Zm0 12.325a3.02 3.02 0 0 1-3.018-3.014 3.024 3.024 0 0 1 3.018-3.018 3.023 3.023 0 0 1 3.017 3.018 3.02 3.02 0 0 1-3.017 3.014ZM432.042 235.396c-4.542 0-8.236 3.693-8.236 8.235s3.694 8.236 8.236 8.236c4.542 0 8.235-3.694 8.235-8.236 0-4.542-3.693-8.235-8.235-8.235Zm0 10.177a1.947 1.947 0 0 1-1.943-1.942c0-1.07.873-1.942 1.943-1.942s1.942.872 1.942 1.942c0 1.07-.872 1.942-1.942 1.942ZM426.118 260.938c0-4.542-3.694-8.236-8.236-8.236-4.542 0-8.236 3.693-8.236 8.236 0 4.542 3.694 8.235 8.236 8.235 4.542 0 8.236-3.693 8.236-8.235Zm-8.236 1.942a1.947 1.947 0 0 1-1.942-1.942c0-1.07.872-1.943 1.942-1.943 1.07 0 1.942.873 1.942 1.943a1.946 1.946 0 0 1-1.942 1.942ZM428.895 273.155c-4.541 0-8.235 3.694-8.235 8.236 0 4.542 3.693 8.235 8.235 8.235s8.236-3.693 8.236-8.235-3.694-8.236-8.236-8.236Zm0 10.178a1.946 1.946 0 0 1-1.942-1.942c0-1.07.872-1.942 1.942-1.942 1.07 0 1.943.872 1.943 1.942 0 1.07-.873 1.942-1.943 1.942ZM305.303 240.131a81.54 81.54 0 0 1-1.754-1.77l-.002-.002-.001-.001c-2.412-2.523-4.019-4.822-4.019-7.83 0-3.998-2.074-5.095-3.313-5.392-4.907-1.242-10.653 8.389-13.64 14.212-1.795 3.499-3.937 8.398-3.937 11.861 0 6.106 3.368 11.39 8.307 14.25l-1.82 40.423c-.148 3.266.996 6.426 3.137 8.663 1.869 1.957 4.321 3.033 6.902 3.033 2.581 0 5.033-1.076 6.901-3.033 2.142-2.237 3.285-5.396 3.137-8.663l-1.82-40.423c4.939-2.861 8.308-8.145 8.308-14.25-.001-4.754-3.394-8.115-6.386-11.078Zm-11.739-6.509c.584 2.634 1.865 4.825 3.35 6.711-1.113.827-2.21 1.263-3.282 1.306-1.444-.006-3.012-.673-4.29-1.598 1.524-2.707 3.021-4.891 4.222-6.419Zm5.35 72.543c.071 1.557-.439 3.03-1.398 4.031-.473.498-1.268 1.088-2.353 1.088-1.085 0-1.881-.59-2.354-1.088-.959-1.001-1.469-2.474-1.398-4.031l1.739-38.634c.668.082 1.324.204 2.013.204.689 0 1.345-.121 2.012-.204l1.739 38.634Zm-3.752-44.723c-5.642 0-10.233-4.591-10.233-10.233 0-.892.467-2.789 1.62-5.523 2.266 1.45 4.571 2.25 6.898 2.25.142 0 .282-.004.427-.01 2.577-.099 5.035-1.111 7.342-2.985 2.274 2.259 4.179 4.24 4.179 6.267 0 5.643-4.591 10.234-10.233 10.234Z" fill="#999"/></svg>

<svg width="750" height="470" viewBox="0 0 750 470" fill="none" xmlns="http://www.w3.org/2000/svg">
<rect width="750" height="470" fill="#ECECEC"/>
<path d="M302.641 366H299.418L295.129 358.992L290.805 366H287.805L293.488 357.117L288.168 348.867H291.285L295.246 355.348L299.207 348.867H302.23L296.875 357.164L302.641 366ZM309.883 360.668V358.441H331.961V360.668H309.883ZM354.039 366H350.816L346.527 358.992L342.203 366H339.203L344.887 357.117L339.566 348.867H342.684L346.645 355.348L350.605 348.867H353.629L348.273 357.164L354.039 366ZM354.086 353.039H357.086L359.723 360.387C360.121 361.434 360.387 362.418 360.52 363.34H360.613C360.684 362.91 360.812 362.391 361 361.781C361.188 361.164 362.18 358.25 363.977 353.039H366.953L361.41 367.723C360.402 370.418 358.723 371.766 356.371 371.766C355.762 371.766 355.168 371.699 354.59 371.566V369.387C355.004 369.48 355.477 369.527 356.008 369.527C357.336 369.527 358.27 368.758 358.809 367.219L359.289 366L354.086 353.039ZM381.355 370.582H378.789V366H369.906V370.582H367.363V363.867H368.418C369.34 362.547 370.07 360.953 370.609 359.086C371.156 357.211 371.48 355.195 371.582 353.039H379.457V363.867H381.355V370.582ZM376.75 363.867V355.148H373.961C373.812 356.758 373.5 358.344 373.023 359.906C372.555 361.469 371.98 362.789 371.301 363.867H376.75ZM395.254 359.496C395.254 361.613 394.711 363.266 393.625 364.453C392.539 365.641 391.027 366.234 389.09 366.234C387.879 366.234 386.809 365.961 385.879 365.414C384.949 364.867 384.234 364.082 383.734 363.059C383.234 362.035 382.984 360.848 382.984 359.496C382.984 357.395 383.523 355.754 384.602 354.574C385.68 353.395 387.199 352.805 389.16 352.805C391.035 352.805 392.52 353.41 393.613 354.621C394.707 355.824 395.254 357.449 395.254 359.496ZM385.82 359.496C385.82 362.488 386.926 363.984 389.137 363.984C391.324 363.984 392.418 362.488 392.418 359.496C392.418 356.535 391.316 355.055 389.113 355.055C387.957 355.055 387.117 355.438 386.594 356.203C386.078 356.969 385.82 358.066 385.82 359.496ZM404.816 359.332V353.039H407.383V359.332L412.375 353.039H415.281L410.184 359.309L415.738 366H412.703L407.383 359.426V366H404.816V359.426L399.508 366H396.484L402.027 359.309L396.941 353.039H399.848L404.816 359.332ZM420.496 353.039V358.242H426.602V353.039H429.355V366H426.602V360.41H420.496V366H417.742V353.039H420.496ZM435.941 353.039V359.684C435.941 360.457 435.879 361.594 435.754 363.094L442.258 353.039H445.621V366H442.973V359.473C442.973 359.113 442.992 358.531 443.031 357.727C443.078 356.922 443.117 356.336 443.148 355.969L436.668 366H433.305V353.039H435.941ZM457.586 353.039H460.609L455.254 359.285L461.066 366H457.902L452.301 359.426V366H449.547V353.039H452.301V359.332L457.586 353.039Z" fill="#666666"/>
<path d="M296.735 150.804C302.808 150.804 307.749 145.863 307.749 139.791C307.749 133.719 302.808 128.778 296.735 128.778C290.663 128.778 285.722 133.719 285.722 139.791C285.722 145.863 290.663 150.804 296.735 150.804ZM296.735 135.071C299.339 135.071 301.455 137.188 301.455 139.791C301.455 142.394 299.339 144.511 296.735 144.511C294.132 144.511 292.016 142.394 292.016 139.791C292.016 137.188 294.133 135.071 296.735 135.071Z" fill="#999999"/>
<path d="M439.909 193.284C439.909 199.357 444.85 204.298 450.922 204.298C456.994 204.298 461.935 199.357 461.935 193.284C461.935 187.212 456.994 182.271 450.922 182.271C444.85 182.271 439.909 187.212 439.909 193.284ZM450.922 188.564C453.525 188.564 455.642 190.681 455.642 193.284C455.642 195.887 453.525 198.004 450.922 198.004C448.319 198.004 446.202 195.887 446.202 193.284C446.202 190.681 448.32 188.564 450.922 188.564Z" fill="#999999"/>
<path d="M463.509 159.087C465.476 159.087 467.071 157.492 467.071 155.524C467.071 153.557 465.476 151.962 463.509 151.962C461.541 151.962 459.946 153.557 459.946 155.524C459.946 157.492 461.541 159.087 463.509 159.087Z" fill="#999999"/>
<path d="M312.469 171.674C314.436 171.674 316.031 170.079 316.031 168.111C316.031 166.143 314.436 164.548 312.469 164.548C310.501 164.548 308.906 166.143 308.906 168.111C308.906 170.079 310.501 171.674 312.469 171.674Z" fill="#999999"/>
<path d="M428.757 144.649C429.371 145.264 430.177 145.571 430.982 145.571C431.786 145.571 432.592 145.264 433.206 144.649L436.762 141.094L440.318 144.649C440.932 145.264 441.738 145.571 442.543 145.571C443.347 145.571 444.153 145.264 444.767 144.649C445.996 143.421 445.996 141.429 444.767 140.2L441.212 136.644L444.767 133.089C445.996 131.86 445.996 129.868 444.767 128.639C443.538 127.41 441.547 127.41 440.318 128.639L436.762 132.195L433.206 128.639C431.978 127.41 429.986 127.41 428.757 128.639C427.528 129.868 427.528 131.86 428.757 133.089L432.313 136.644L428.757 140.2C427.528 141.429 427.528 143.42 428.757 144.649Z" fill="#999999"/>
<path d="M284.01 210.729C284.624 211.344 285.43 211.651 286.235 211.651C287.039 211.651 287.845 211.344 288.459 210.729L292.015 207.174L295.571 210.729C296.185 211.344 296.991 211.651 297.796 211.651C298.6 211.651 299.406 211.344 300.02 210.729C301.249 209.501 301.249 207.509 300.02 206.28L296.464 202.724L300.02 199.169C301.249 197.94 301.249 195.948 300.02 194.719C298.791 193.49 296.8 193.49 295.571 194.719L292.015 198.275L288.459 194.719C287.231 193.49 285.239 193.49 284.01 194.719C282.781 195.948 282.781 197.94 284.01 199.169L287.566 202.724L284.01 206.28C282.781 207.509 282.781 209.5 284.01 210.729Z" fill="#999999"/>
<path d="M391.135 212.164C392.873 212.164 394.282 210.755 394.282 209.018C394.282 207.28 392.873 205.871 391.135 205.871C389.398 205.871 387.989 207.28 387.989 209.018C387.989 210.755 389.398 212.164 391.135 212.164Z" fill="#999999"/>
<path d="M359.669 212.164C361.406 212.164 362.815 210.755 362.815 209.018C362.815 207.28 361.406 205.871 359.669 205.871C357.931 205.871 356.522 207.28 356.522 209.018C356.522 210.755 357.931 212.164 359.669 212.164Z" fill="#999999"/>
<path d="M462.249 259.994C458.258 256.998 457.923 252.158 457.536 246.557C456.93 237.823 456.177 226.958 438.726 224.775C429.833 223.672 421.017 226.521 413.888 232.811C407.963 238.044 403.779 245.182 401.829 252.901L389.563 247.328V244.789C389.563 244.76 389.547 244.735 389.546 244.706C401.589 238.952 410.745 228.23 414.46 215.305C416.553 215.36 418.479 214.797 420.381 213.612C423.301 211.79 425.277 208.827 425.664 205.681C426.054 202.528 425.077 199.366 422.991 197.003C421.556 195.383 419.694 194.237 417.647 193.675C417.641 193.122 417.619 191.112 417.611 190.902C417.769 190.525 417.884 176.877 417.884 176.877C418.612 176.79 419.322 176.658 419.992 176.426C422.352 175.612 424.153 173.94 425.339 171.461H425.342C429.436 162.906 422.121 150.788 408.223 141.458C409.197 138.993 409.299 136.304 408.411 133.783C407.43 131.009 405.433 128.781 402.781 127.511C400.129 126.236 397.142 126.076 394.362 127.053C391.838 127.945 389.806 129.708 388.497 132.01C372.517 127.03 358.489 128.926 354.389 137.48C353.467 139.407 353.268 141.421 353.715 143.371C340.248 149.528 332.869 161.169 332.925 176.362L332.965 181.557C332.996 184.498 333.074 190.007 333.132 190.253C333.131 190.299 333.164 192.9 333.164 193.668C331.272 194.181 329.547 195.198 328.146 196.649C326.054 198.822 324.959 201.68 325.067 204.697C325.184 208.064 327.095 211.316 330.174 213.393C332.12 214.705 334.071 215.347 336.191 215.313C339.482 227.338 347.464 237.428 358.113 243.555C358.112 243.581 358.098 243.603 358.098 243.63V247.327L333.02 258.724C321.493 263.963 314.044 275.671 314.044 288.547V314.429C314.044 316.169 315.452 317.576 317.191 317.576H430.471C432.21 317.576 433.618 316.169 433.618 314.429V299.941C435.168 300.136 436.736 300.269 438.338 300.269C452.237 300.269 466.974 291.275 470.523 280.63C471.959 276.318 472.795 267.904 462.249 259.994ZM396.452 132.991C397.644 132.573 398.923 132.646 400.056 133.185C401.949 134.093 402.939 136.102 402.674 138.074C401.386 137.366 400.066 136.676 398.698 136.02C397.342 135.371 395.99 134.779 394.642 134.225C395.151 133.69 395.737 133.242 396.452 132.991ZM360.062 140.197C361.479 137.244 365.901 135.526 372.102 135.526C378.583 135.526 387.009 137.4 395.981 141.696C413.54 150.11 422.553 162.703 419.662 168.744C419.084 169.952 418.435 170.305 417.935 170.48C414.272 171.734 405.585 167.435 396.366 162.888C394.101 161.769 391.726 160.595 389.243 159.406C386.806 158.238 384.391 157.117 382.049 156.029C371.886 151.305 361.383 146.419 359.893 142.268C359.648 141.582 359.696 140.962 360.062 140.197ZM356.913 148.82C361.327 153.327 369.566 157.166 379.394 161.735C381.717 162.814 384.11 163.926 386.526 165.085C388.984 166.262 391.338 167.423 393.581 168.529C400.723 172.057 406.654 174.978 411.589 176.267V188.165C402.173 195.245 391.526 197.928 381.462 195.728C372.439 193.758 364.958 188.04 360.938 180.041C360.48 179.131 359.61 178.498 358.605 178.345C357.594 178.182 356.577 178.529 355.87 179.26C351.811 183.439 345.883 185.95 339.292 186.362C339.289 184.843 339.27 183.191 339.255 181.497L339.215 176.337C339.156 160.121 348.618 152.443 356.913 148.82ZM341.646 211.089C341.465 210.207 340.915 209.445 340.134 208.993C339.354 208.545 338.416 208.458 337.559 208.738C336.343 209.153 335.218 209.209 333.694 208.176C332.299 207.236 331.401 205.816 331.352 204.473C331.305 203.177 331.776 201.95 332.673 201.019C333.571 200.091 334.775 199.578 336.069 199.578C336.92 199.578 337.768 199.215 338.361 198.607C339.235 197.709 339.505 196.938 339.451 192.643C346.182 192.266 352.427 190.07 357.321 186.352C362.468 194.222 370.584 199.796 380.119 201.876C382.872 202.479 385.653 202.777 388.44 202.777C396.267 202.775 404.115 200.392 411.421 195.855C411.541 197.293 411.828 197.982 412.464 198.625C413.054 199.224 413.893 199.578 414.735 199.578C416.088 199.578 417.378 200.158 418.272 201.172C419.182 202.199 419.588 203.526 419.418 204.912C419.259 206.19 418.374 207.444 417.052 208.271C415.724 209.098 414.6 209.224 413.177 208.723C412.329 208.412 411.386 208.502 410.599 208.937C409.809 209.377 409.247 210.136 409.053 211.018C405.989 225.086 395.591 236.579 381.913 241.01L380.524 241.465C376.612 242.733 372.614 242.78 368.97 241.603C355.057 237.126 344.587 225.433 341.646 211.089ZM367.041 247.595C369.425 248.364 371.905 248.744 374.422 248.744C377.093 248.744 379.8 248.314 382.467 247.45L383.27 247.188V248.351C383.27 253.556 379.035 257.791 373.83 257.791C368.624 257.791 364.39 253.556 364.39 248.351V246.552C365.274 246.898 366.129 247.302 367.041 247.595ZM427.322 311.284H408.442V295.551C408.442 293.812 407.035 292.404 405.295 292.404C403.556 292.404 402.149 293.812 402.149 295.551V311.284H342.362V295.551C342.362 293.812 340.955 292.404 339.215 292.404C337.476 292.404 336.069 293.812 336.069 295.551V311.284H320.335V288.548C320.335 278.134 326.337 268.675 335.623 264.453L359.118 253.776C361.339 259.774 367.068 264.084 373.829 264.084C380.59 264.084 386.319 259.774 388.539 253.775L400.75 259.323C400.662 260.384 400.575 261.445 400.575 262.511C400.575 279.502 411.858 293.897 427.322 298.623V311.284ZM464.55 278.641C461.874 286.667 449.379 293.978 438.335 293.978C420.985 293.978 406.869 279.861 406.869 262.511C406.869 253.05 411.051 243.711 418.054 237.531C423.008 233.158 428.929 230.835 434.989 230.835C435.972 230.835 436.959 230.896 437.945 231.019C450.258 232.559 450.677 238.612 451.257 246.989C451.688 253.231 452.176 260.304 458.476 265.028C464.108 269.253 466.152 273.835 464.55 278.641Z" fill="#999999"/>
<path d="M450.922 265.787C445.787 265.787 441.611 269.963 441.611 275.098C441.611 280.229 445.787 284.405 450.922 284.405C456.056 284.405 460.233 280.229 460.233 275.098C460.233 269.963 456.057 265.787 450.922 265.787ZM450.922 278.112C449.26 278.112 447.904 276.76 447.904 275.098C447.904 273.435 449.26 272.08 450.922 272.08C452.584 272.08 453.939 273.435 453.939 275.098C453.939 276.76 452.584 278.112 450.922 278.112Z" fill="#999999"/>
<path d="M432.042 235.396C427.5 235.396 423.806 239.089 423.806 243.631C423.806 248.173 427.5 251.867 432.042 251.867C436.584 251.867 440.277 248.173 440.277 243.631C440.277 239.089 436.584 235.396 432.042 235.396ZM432.042 245.573C430.973 245.573 430.099 244.701 430.099 243.631C430.099 242.561 430.972 241.689 432.042 241.689C433.112 241.689 433.984 242.561 433.984 243.631C433.984 244.701 433.112 245.573 432.042 245.573Z" fill="#999999"/>
<path d="M426.118 260.938C426.118 256.396 422.424 252.702 417.882 252.702C413.34 252.702 409.646 256.395 409.646 260.938C409.646 265.48 413.34 269.173 417.882 269.173C422.424 269.173 426.118 265.48 426.118 260.938ZM417.882 262.88C416.813 262.88 415.94 262.007 415.94 260.938C415.94 259.868 416.812 258.995 417.882 258.995C418.952 258.995 419.824 259.868 419.824 260.938C419.824 262.007 418.952 262.88 417.882 262.88Z" fill="#999999"/>
<path d="M428.895 273.155C424.354 273.155 420.66 276.849 420.66 281.391C420.66 285.933 424.353 289.626 428.895 289.626C433.437 289.626 437.131 285.933 437.131 281.391C437.131 276.849 433.437 273.155 428.895 273.155ZM428.895 283.333C427.826 283.333 426.953 282.461 426.953 281.391C426.953 280.321 427.825 279.449 428.895 279.449C429.965 279.449 430.838 280.321 430.838 281.391C430.838 282.461 429.965 283.333 428.895 283.333Z" fill="#999999"/>
<path d="M305.303 240.131C304.719 239.554 304.126 238.967 303.549 238.361C303.548 238.36 303.547 238.36 303.547 238.359C303.546 238.359 303.546 238.359 303.546 238.358C301.134 235.835 299.527 233.536 299.527 230.528C299.527 226.53 297.453 225.433 296.214 225.136C291.307 223.894 285.561 233.525 282.574 239.348C280.779 242.847 278.637 247.746 278.637 251.209C278.637 257.315 282.005 262.599 286.944 265.459L285.124 305.882C284.976 309.148 286.12 312.308 288.261 314.545C290.13 316.502 292.582 317.578 295.163 317.578C297.744 317.578 300.196 316.502 302.064 314.545C304.206 312.308 305.349 309.149 305.201 305.882L303.381 265.459C308.32 262.598 311.689 257.314 311.689 251.209C311.688 246.455 308.295 243.094 305.303 240.131ZM293.564 233.622C294.148 236.256 295.429 238.447 296.914 240.333C295.801 241.16 294.704 241.596 293.632 241.639C292.188 241.633 290.62 240.966 289.342 240.041C290.866 237.334 292.363 235.15 293.564 233.622ZM298.914 306.165C298.985 307.722 298.475 309.195 297.516 310.196C297.043 310.694 296.248 311.284 295.163 311.284C294.078 311.284 293.282 310.694 292.809 310.196C291.85 309.195 291.34 307.722 291.411 306.165L293.15 267.531C293.818 267.613 294.474 267.735 295.163 267.735C295.852 267.735 296.508 267.614 297.175 267.531L298.914 306.165ZM295.162 261.442C289.52 261.442 284.929 256.851 284.929 251.209C284.929 250.317 285.396 248.42 286.549 245.686C288.815 247.136 291.12 247.936 293.447 247.936C293.589 247.936 293.729 247.932 293.874 247.926C296.451 247.827 298.909 246.815 301.216 244.941C303.49 247.2 305.395 249.181 305.395 251.208C305.395 256.851 300.804 261.442 295.162 261.442Z" fill="#999999"/>
</svg>
